!!!!SEGMENT: pl-cz--ii-87--004-006_hepner--msza-st-sanctus.krn
!!!cenid: 18xx:1193
!!!COM: Hepner
!!!COM-rismID: pe30021002
!!!CDT: ~1800-~1899
!!!CNT:
!!!OPR: Msza St.
!!!OTL: Sanctus
!!!OMV: 006
!!!PDT: 1888
!!!AGN: Sacred; Mass
!!!SMS-siglum: PL-CZ
!!!SMS-shelfmark: II-87
!!!SMS-shelfwork: 004-006 M
!!!SMS-variant:
!!!SMS-altvar:
!!!NIFC-rismSourceID: 300033227
!!!NIFC-islandoraID: pl-cz:33881
!!!URL-pdf-islandora: https://repozytorium.nifc.pl/islandora/object/pl-cz%3A33881/datastream/PDF/view
!!!URL-scan:
!!!ONB-nifc: UWAGA: części Mszy: Kirie, Gloria, Graduale, Credo, Offertorium, Sanctus, Benedictus, Agnus, Communio, Benedicio
!!!OMD: Andante
!!!AIN: 2 organ 1 vox
!!!key: C
**kern	**kern	**text
*part2	*part1	*part1
*staff2	*staff1	*staff1
*I"Organo	*I"Voce	*
*Iorgan	*Iorgan&Ivox	*
*ICklav	*ICklav&ICvox	*
*clefF4	*clefG2	*
*k[]	*k[]	*
*C:	*C:	*
*M4/4	*M4/4	*
*met(c)	*met(c)	*
=1	=1	=1
2C\	1e/ 1g/ 1cc/	Swię-
2E\	.	.
=2	=2	=2
!	!LO:N:vis=2	!
4G\	1e/ 1g/ 1b/	-ty
8.G\L	.	.
16A\Jk	.	.
4G\	.	.
4G\	.	.
=3	=3	=3
2G\	1g\ 1b\ 1dd\ 1ff\	Swię-
2B\	.	.
=4	=4	=4
!	!LO:TX:t=P:"LO:SIC:v:n=3:s=2g\"?:problem	!
4C\ 4c\	2a\ 2cc\ 2ee\	-ty
8.C\L 8.c\	.	.
16C\Jk 16c\	.	.
4C\ 4c\	2r	.
4C\ 4c\	.	.
=5	=5	=5
4.AA\ 4.A\	4cc\ 4dd\ 4ff#X\	Swię-
.	4cc\ 4dd\ 4ff#\	-ty
8AA\ 8A\	.	.
4AA\ 4A\	4cc\ 4dd\ 4ff#\	Pan
4AA\ 4A\	4cc\ 4dd\ 4ff#\	w nie-
=6	=6	=6
[<2GG\ [>2G\	(>2b\ 2dd\ 2gg\	-bio-
2GG\] 2G\]	4ffn\	.
.	4cc\) 4ee\	.
=7	=7	=7
4GG\ 4G\	4g\ 4b\ 4dd\	-sach
8G\L	8g/L	Bóg
8G\J	8g/J	wszech-
4G\	4g/	-mo-
4G\	4g/	-cny
!!LO:LB:g=original
=8	=8	=8
4G\	4g/	wie-
4G\	4g/	-ko-
4G\	4g/	-is-
4G\	4g/	-ty
=9	=9	=9
2C\	2g\ 2cc\ 2ee\	Swię-
2E\	2g\ 2cc\	-ty
=10	=10	=10
2D\	2f/ 2g/ 2b/	zgo-
2C\	2e/ 2g/ 2cc/	-dnych
=11	=11	=11
*	*^	*
2.F\	2f/ 2a/	2ryy	wiel-
.	2d/ 2f#X/ 2a/	(>4dd/	-bmy
4F#X\	.	4cc/)	.
*	*v	*v	*
=12	=12	=12
4G\	(>4d/ 4g/ 4b/	gło-
4D\	4c/) 4d/ 4f#X/ 4a/	.
4GG/	4B/ 4d/ 4g/	-sach
8AA/L	4r	.
8BB/J	.	.
=13	=13	=13
2C\	(>2cc\	Bóg
4c\	4dd\)	.
4B-X\ 4c\	4cc\ 4ee\	za-
=14	=14	=14
*	*^	*
4A\	4ff/	2cc\	-stę-
4G\	4ee/	.	.
4F#X\	4ee-X/	4ryy	-pów
4r	4r	4r	.
*	*v	*v	*
!!LO:LB:g=original
=15	=15	=15
1G\	1g\ 1ee\	Swię-
=16	=16	=16
4GG/ 4G/	2e/ 2g/ 2cc/	-ty
4C/	.	.
4E/	2r	.
4G/	.	.
=17	=17	=17
1GG/ 1G/	1g/ 1dd/	Swię-
=18	=18	=18
4GG/ 4G/	2f/ 2g/ 2b/	-ty
4BB/	.	.
4D/	2r	.
4G/	.	.
=19	=19	=19
4C/	1e/ 1g/ 1cc/	Swię-
4CC/	.	.
4EE/	.	.
4GG/	.	.
=20	=20	=20
2CC/ 2C/	2e/ 2g/ 2cc/	-ty
2r	4r	.
.	8g/L 8b/	Łąn-
.	8a/J 8cc/	-czmy
=21	=21	=21
!LO:TX:t=P:problem=mixed beam	!	!
8GG/L	4b\ 4dd\	głos
8G\	.	.
8GG/	4b\ 4dd\	nasz
8G\J	.	.
!LO:TX:t=P:problem=mixed beam	!	!
8GG/L	4cc\ 4ee\	znie-
8G\	.	.
8GG/	4b\ 4dd\	-bios
8G\J	.	.
!!LO:LB:g=original
=22	=22	=22
!LO:TX:t=P:problem=mixed beam	!	!
8D/L	(>8b\L 8dd\	Pie-
8d\	8a\J) 8cc\	.
8D/	4cc\	-niem
8d\J	.	.
!LO:TX:t=P:problem=mixed beam	!	!
8d\L	4r	.
8D/	.	.
8d\	8a\L 8cc\	niech
8D/J	8cc\J	swiat
=23	=23	=23
8G\L	4.b\ 4.dd\	ca-
8d\	.	.
8B\	.	.
8G\J	8b\ 8dd\	-ły
4D\	(>8b\L 8dd\	czcia-
.	8a\ 8cc\	.
8D\L 8d\	8g\ 8b\	.
8c\J	8f#X\J) 8a\	prze-
=24	=24	=24
4D\ 4d\	4f#X/ 4a/	-ję-
4G\ 4B\	4g/	-ty
4GG/	4r	.
8G\L	8g/L	je-
8G\J	8f#/J	-dnym
=25	=25	=25
4E\	4g\ 4cc\ 4ee\	wiel-
4G\	4g\ 4cc\	-bi-
4D\	4f/ 4g/ 4b/	-my
4C\	4e\ 4g\ 4cc\	go
=26	=26	=26
4F\	8f/L 8a/	i-
.	8cc/J	-mie-
2F\	2f\ 2a\ 2dd\	-niem
8F\L	8dd\L	je-
8E\J	8ee\J	-dnym
!!LO:LB:g=original
=27	=27	=27
2D\	2a\ 2dd\ 2ff\	hy-
2F\	2f\ 2a\ 2dd\	-mnem
=28	=28	=28
2A-X\	4d/ 4f/ 4cc/	Swię-
.	4d/ 4f/ 4cc/	ty
2r	2r	.
=29	=29	=29
2G\	8g\L 8b\ 8dd\	Swię-
.	8gg\J	.
.	4b\ 4dd\ 4gg\	-ty
2G\	2d/ 2f/ 2g/ 2b/	Swię-
=30	=30	=30
1C\ 1c\	1e/ 1g/ 1cc/	-ty.
!!LO:LB:g=original
==	==	==
*-	*-	*-
!!!system-decoration: [(s1,s2)]
!!!RDF**kern: < = below
!!!RDF**kern: > = above
!!!ENC: Berenika Jozajtis
!!!END: 2020-11-09
!!!ENC: Marta Chmielewska
!!!END: 2021-11-15
!!!YEC: Copyright 2022 Narodowy Instytut Fryderyka Chopina (https://polishscores.org)
!!!YEM: Licence CC BY 4.0 (https://creativecommons.org/licenses/by/4.0)
